assets/svgs/close.svg

<?xml version="1.0" encoding="utf-8"?>
<!DOCTYPE svg PUBLIC "-//W3C//DTD SVG 1.1//EN" "http://www.w3.org/Graphics/SVG/1.1/DTD/svg11.dtd">
<svg version="1.1" xmlns="http://www.w3.org/2000/svg" xmlns:xlink="http://www.w3.org/1999/xlink" width="24" height="24" viewBox="0 0 24 24">
<path d="M19 4q0.43 0 0.715 0.285t0.285 0.715q0 0.422-0.289 0.711l-6.297 6.289 6.297 6.289q0.289 0.289 0.289 0.711 0 0.43-0.285 0.715t-0.715 0.285q-0.422 0-0.711-0.289l-6.289-6.297-6.289 6.297q-0.289 0.289-0.711 0.289-0.43 0-0.715-0.285t-0.285-0.715q0-0.422 0.289-0.711l6.297-6.289-6.297-6.289q-0.289-0.289-0.289-0.711 0-0.43 0.285-0.715t0.715-0.285q0.422 0 0.711 0.289l6.289 6.297 6.289-6.297q0.289-0.289 0.711-0.289z"></path>
</svg>

<svg xmlns="http://www.w3.org/2000/svg" width="24" height="24" viewBox="0 0 24 24"><path d="M19 4q.43 0 .715.285T20 5q0 .422-.289.711L13.414 12l6.297 6.289Q20 18.578 20 19q0 .43-.285.715T19 20q-.422 0-.711-.289L12 13.414l-6.289 6.297Q5.422 20 5 20q-.43 0-.715-.285T4 19q0-.422.289-.711L10.586 12 4.289 5.711Q4 5.422 4 5q0-.43.285-.715T5 4q.422 0 .711.289L12 10.586l6.289-6.297Q18.578 4 19 4z"/></svg>
